src/assets/sidebar_icons/clipboard-line.svg

<svg width="24" height="24" viewBox="0 0 24 24" fill="none" xmlns="http://www.w3.org/2000/svg">
<path d="M7 4V2H17V4H20.007C20.555 4 21 4.445 21 4.993V21.007C20.9997 21.2703 20.895 21.5227 20.7089 21.7089C20.5227 21.895 20.2703 21.9997 20.007 22H3.993C3.72972 21.9997 3.4773 21.895 3.29114 21.7089C3.10497 21.5227 3.00026 21.2703 3 21.007V4.993C3 4.445 3.445 4 3.993 4H7ZM7 6H5V20H19V6H17V8H7V6ZM9 4V6H15V4H9Z" fill="#828282"/>
</svg>

<svg xmlns="http://www.w3.org/2000/svg" viewBox="0 0 24 24" width="24" height="24"><path fill="none" d="M0 0h24v24H0z"/><path d="M7 4V2h10v2h3.007c.548 0 .993.445.993.993v16.014a.994.994 0 0 1-.993.993H3.993A.994.994 0 0 1 3 21.007V4.993C3 4.445 3.445 4 3.993 4H7zm0 2H5v14h14V6h-2v2H7V6zm2-2v2h6V4H9z"/></svg>
